X:1
T:Title
%%score ( 1 2 ) 3 4
L:1/8
Q:1/4=120
M:2/4
K:D
V:1 treble nm="Picked Bass, Soprano Voice"
V:2 treble 
V:3 bass nm="Picked Bass, Tenor Voice"
V:4 bass nm="Picked Bass, Baritone Voice"
V:1
 A2 EA | cB A2 | .EE Ac | ec B2- | Bc e.e | .e.e .e2 | e.c c.A | AB c2- | cA EA | cB A2- | A2 Ac | %11
 ec B2- | Bc .e.e | .e.e .e2 | e.c c.A | AB c2- | c2 z2 |] %17
V:2
 x4 | x4 | x4 | x4 | x4 | x4 | x4 | x4 | x4 | x4 | z .E3 | x4 | x4 | x4 | x4 | x4 | x4 |] %17
V:3
 E,2 A,E, | A,B,[K:treble] C2 | .CC DC | B,A, F,2- | F,A, B,^G, | E,A, .B,2 | B,E, .A,A, | %7
 CB, A,2- | A,E, A,E, | A,B,[K:treble] C2- | CE DC | B,A, F,2- | F,A, B,^G, | E,A, .B,2 | %14
 B,E, .A,A, | CB, A,2- | A,2 z2 |] %17
V:4
 A,2 (3A, z .A, | .A,>A, A,2 | z/ A,/ z/4 .A,3/4 (3:2:4z/ A,/ z .A, | (3.[E,A,]2 .F,2 D,2- | %4
 D, z/4 A,3/4 E, z/4 z/8 E,/8-E,/ | z/4 .E,3/4 z/4 .E,3/4 E,2 | E,.A, A,E, | (3C,2 E,2 A,,2- | %8
 A,,A, .A,>A, | z/ .A,A,/ A,2- | A, z/4 .A,3/4 .A,.A, | [E,A,]F, D,2- | %12
 D, z/ A,/ z/4 .E,3/4 z/4 .E,3/4 | z/4 .E,3/4 z/4 .E,3/4 E,2 | E,.A, A,E, | C,E, A,,2- | A,,2 z2 |] %17

